logo/logo.svg

<svg width="230" height="230" viewBox="0 0 230 230" fill="none" xmlns="http://www.w3.org/2000/svg">
<rect width="230" height="230" fill="#F2F2F2"/>
<path fill-rule="evenodd" clip-rule="evenodd" d="M230 0H0V230H230V0ZM25 39C33.2843 39 40 32.2843 40 24C40 15.7157 33.2843 9 25 9C16.7157 9 10 15.7157 10 24C10 32.2843 16.7157 39 25 39ZM220 24C220 32.2843 213.284 39 205 39C196.716 39 190 32.2843 190 24C190 15.7157 196.716 9 205 9C213.284 9 220 15.7157 220 24ZM25 219C33.2843 219 40 212.284 40 204C40 195.716 33.2843 189 25 189C16.7157 189 10 195.716 10 204C10 212.284 16.7157 219 25 219ZM220 204C220 212.284 213.284 219 205 219C196.716 219 190 212.284 190 204C190 195.716 196.716 189 205 189C213.284 189 220 195.716 220 204ZM115 204C166.915 204 209 161.915 209 110C209 58.0852 166.915 16 115 16C63.0852 16 21 58.0852 21 110C21 161.915 63.0852 204 115 204Z" fill="#292929"/>
<path d="M62.5 145.5C62.5 148.959 59.8969 151.5 57 151.5C54.1031 151.5 51.5 148.959 51.5 145.5C51.5 142.041 54.1031 139.5 57 139.5C59.8969 139.5 62.5 142.041 62.5 145.5Z" stroke="#292929" stroke-width="5"/>
<path d="M53.9857 138.466C53.9857 138.466 50.1974 115.315 82.1875 92.1647C114.178 69.014 132.698 68.5931 132.698 68.5931" stroke="#292929" stroke-width="5" stroke-linecap="round"/>
<circle cx="172.774" cy="144.64" r="5.91844" transform="rotate(-119.947 172.774 144.64)" stroke="#292929" stroke-width="5"/>
<path d="M168.409 150.555C168.409 150.555 150.24 165.394 114.211 149.232C78.1818 133.07 68.5716 117.232 68.5716 117.232" stroke="#292929" stroke-width="5" stroke-linecap="round"/>
<circle cx="113.726" cy="43.8891" r="5.91844" transform="rotate(119.545 113.726 43.8891)" stroke="#292929" stroke-width="5"/>
<path d="M121.038 44.6467C121.038 44.6467 143.047 52.7668 147.412 92.0129C151.778 131.259 143.012 147.579 143.012 147.579" stroke="#292929" stroke-width="5" stroke-linecap="round"/>
<path d="M58.6334 104C58.6334 104 49.4373 81.1038 60.3054 72.3616C71.1736 63.6194 95 68.1987 95 68.1987" stroke="#292929" stroke-width="5" stroke-linecap="round"/>
<path d="M148.532 65.9784C148.532 65.9784 173.391 67.9134 176.477 81.6384C179.564 95.3634 164.799 114.833 164.799 114.833" stroke="#292929" stroke-width="5" stroke-linecap="round"/>
<path d="M137.248 162.363C137.248 162.363 123.023 182.841 109.618 178.573C96.2129 174.305 86.8662 151.728 86.8662 151.728" stroke="#292929" stroke-width="5" stroke-linecap="round"/>
<ellipse cx="115" cy="110.5" rx="8" ry="7.5" fill="#292929"/>
</svg>

<svg width="230" height="230" viewBox="0 0 230 230" fill="none" xmlns="http://www.w3.org/2000/svg"><path fill="#F2F2F2" d="M0 0h230v230H0z"/><path fill-rule="evenodd" clip-rule="evenodd" d="M230 0H0v230h230V0zM25 39c8.284 0 15-6.716 15-15 0-8.284-6.716-15-15-15-8.284 0-15 6.716-15 15 0 8.284 6.716 15 15 15zm195-15c0 8.284-6.716 15-15 15-8.284 0-15-6.716-15-15 0-8.284 6.716-15 15-15 8.284 0 15 6.716 15 15zM25 219c8.284 0 15-6.716 15-15 0-8.284-6.716-15-15-15-8.284 0-15 6.716-15 15 0 8.284 6.716 15 15 15zm195-15c0 8.284-6.716 15-15 15-8.284 0-15-6.716-15-15 0-8.284 6.716-15 15-15 8.284 0 15 6.716 15 15zm-105 0c51.915 0 94-42.085 94-94s-42.085-94-94-94-94 42.085-94 94 42.085 94 94 94z" fill="#292929"/><path d="M62.5 145.5c0 3.459-2.603 6-5.5 6s-5.5-2.541-5.5-6 2.603-6 5.5-6 5.5 2.541 5.5 6z" stroke="#292929" stroke-width="5"/><path d="M53.986 138.466s-3.789-23.151 28.202-46.301c31.99-23.151 50.51-23.572 50.51-23.572" stroke="#292929" stroke-width="5" stroke-linecap="round"/><circle cx="172.774" cy="144.64" r="5.918" transform="rotate(-119.947 172.774 144.64)" stroke="#292929" stroke-width="5"/><path d="M168.409 150.555s-18.169 14.839-54.198-1.323c-36.03-16.162-45.64-32-45.64-32" stroke="#292929" stroke-width="5" stroke-linecap="round"/><circle cx="113.726" cy="43.889" r="5.918" transform="rotate(119.545 113.726 43.89)" stroke="#292929" stroke-width="5"/><path d="M121.038 44.647s22.009 8.12 26.374 47.366c4.366 39.246-4.4 55.566-4.4 55.566M58.633 104s-9.196-22.896 1.672-31.638C71.174 63.619 95 68.199 95 68.199m53.532-2.221s24.859 1.935 27.945 15.66c3.087 13.725-11.678 33.195-11.678 33.195m-27.551 47.53s-14.225 20.478-27.63 16.21c-13.405-4.268-22.752-26.845-22.752-26.845" stroke="#292929" stroke-width="5" stroke-linecap="round"/><ellipse cx="115" cy="110.5" rx="8" ry="7.5" fill="#292929"/></svg>
